svg/emoji_u1f6a6.svg

<svg enable-background="new 0 0 128 128" viewBox="0 0 128 128" xmlns="http://www.w3.org/2000/svg"><linearGradient id="d" x1="64" x2="64" y1="5.3946" y2="121.39" gradientUnits="userSpaceOnUse"><stop stop-color="#212121" offset="0"/><stop stop-color="#242424" offset=".3086"/><stop stop-color="#2D2D2D" offset=".5332"/><stop stop-color="#3D3D3D" offset=".7312"/><stop stop-color="#535353" offset=".9127"/><stop stop-color="#616161" offset="1"/></linearGradient><path d="m76.44 124h-24.88c-5.5 0-10-4.5-10-10v-100c0-5.5 4.5-10 10-10h24.88c5.5 0 10 4.5 10 10v100c0 5.5-4.5 10-10 10z" fill="url(#d)"/><radialGradient id="c" cx="60.105" cy="61.054" r="13.076" gradientUnits="userSpaceOnUse"><stop stop-color="#FFEE58" offset=".0014825"/><stop stop-color="#FDD743" offset=".3529"/><stop stop-color="#FCC633" offset=".7247"/><stop stop-color="#FBC02D" offset="1"/></radialGradient><circle cx="64" cy="63.84" r="13.08" fill="url(#c)"/><radialGradient id="b" cx="59.966" cy="96.247" r="13.076" gradientUnits="userSpaceOnUse"><stop stop-color="#81C784" offset=".0019061"/><stop stop-color="#77C07A" offset=".1121"/><stop stop-color="#5AAF5E" offset=".4646"/><stop stop-color="#49A44D" offset=".7726"/><stop stop-color="#43A047" offset="1"/></radialGradient><circle cx="64" cy="99.45" r="13.08" fill="url(#b)"/><g opacity=".2"><path d="m76.44 7.11c3.8 0 6.89 3.09 6.89 6.89v100c0 3.8-3.09 6.89-6.89 6.89h-24.88c-3.8 0-6.89-3.09-6.89-6.89v-100c0-3.8 3.09-6.89 6.89-6.89h24.88m0-3.11h-24.88c-5.5 0-10 4.5-10 10v100c0 5.5 4.5 10 10 10h24.88c5.5 0 10-4.5 10-10v-100c0-5.5-4.5-10-10-10z" fill="#eee"/></g><radialGradient id="a" cx="59.92" cy="24.794" r="13.076" gradientUnits="userSpaceOnUse"><stop stop-color="#E57373" offset="0"/><stop stop-color="#E56969" offset=".1104"/><stop stop-color="#E54F4C" offset=".4636"/><stop stop-color="#E53F3B" offset=".7721"/><stop stop-color="#E53935" offset="1"/></radialGradient><circle cx="64" cy="28.23" r="13.08" fill="url(#a)"/></svg>

<svg width="128" height="128" style="enable-background:new 0 0 128 128;" xmlns="http://www.w3.org/2000/svg" xmlns:xlink="http://www.w3.org/1999/xlink">
  <g>
    <g>
      <linearGradient id="SVGID_1_" gradientUnits="userSpaceOnUse" x1="64" x2="64" y1="5.3946" y2="121.3917">
        <stop offset="0" style="stop-color:#212121"/>
        <stop offset="0.3086" style="stop-color:#242424"/>
        <stop offset="0.5332" style="stop-color:#2D2D2D"/>
        <stop offset="0.7312" style="stop-color:#3D3D3D"/>
        <stop offset="0.9127" style="stop-color:#535353"/>
        <stop offset="1" style="stop-color:#616161"/>
      </linearGradient>
      <path d="M76.44,124H51.56c-5.5,0-10-4.5-10-10V14c0-5.5,4.5-10,10-10h24.88c5.5,0,10,4.5,10,10v100 C86.44,119.5,81.94,124,76.44,124z" style="fill:url(#SVGID_1_);"/>
      <radialGradient id="SVGID_2_" cx="60.1051" cy="61.0539" gradientUnits="userSpaceOnUse" r="13.0757">
        <stop offset="1.482492e-03" style="stop-color:#FFEE58"/>
        <stop offset="0.3529" style="stop-color:#FDD743"/>
        <stop offset="0.7247" style="stop-color:#FCC633"/>
        <stop offset="1" style="stop-color:#FBC02D"/>
      </radialGradient>
      <circle cx="64" cy="63.84" r="13.08" style="fill:url(#SVGID_2_);"/>
      <radialGradient id="SVGID_3_" cx="59.966" cy="96.2471" gradientUnits="userSpaceOnUse" r="13.0757">
        <stop offset="1.906062e-03" style="stop-color:#81C784"/>
        <stop offset="0.1121" style="stop-color:#77C07A"/>
        <stop offset="0.4646" style="stop-color:#5AAF5E"/>
        <stop offset="0.7726" style="stop-color:#49A44D"/>
        <stop offset="1" style="stop-color:#43A047"/>
      </radialGradient>
      <circle cx="64" cy="99.45" r="13.08" style="fill:url(#SVGID_3_);"/>
      <g style="opacity:0.2;">
        <path d="M76.44,7.11c3.8,0,6.89,3.09,6.89,6.89v100c0,3.8-3.09,6.89-6.89,6.89H51.56 c-3.8,0-6.89-3.09-6.89-6.89V14c0-3.8,3.09-6.89,6.89-6.89H76.44 M76.44,4H51.56c-5.5,0-10,4.5-10,10v100c0,5.5,4.5,10,10,10 h24.88c5.5,0,10-4.5,10-10V14C86.44,8.5,81.94,4,76.44,4L76.44,4z" style="fill:#EEEEEE;"/>
      </g>
    </g>
    <radialGradient id="SVGID_4_" cx="59.9196" cy="24.7942" gradientUnits="userSpaceOnUse" r="13.0757">
      <stop offset="0" style="stop-color:#E57373"/>
      <stop offset="0.1104" style="stop-color:#E56969"/>
      <stop offset="0.4636" style="stop-color:#E54F4C"/>
      <stop offset="0.7721" style="stop-color:#E53F3B"/>
      <stop offset="1" style="stop-color:#E53935"/>
    </radialGradient>
    <circle cx="64" cy="28.23" r="13.08" style="fill:url(#SVGID_4_);"/>
  </g>
</svg>
